img/calendar-icon-hover.svg

<svg height="22" viewBox="0 0 21 22" width="21" xmlns="http://www.w3.org/2000/svg"><g transform="translate(0 -1)"><path d="m19.251 3.025h-2.845v-1.377c0-.381-.294-.689-.656-.689-.363 0-.656.308-.656.689v1.377h-3.938v-1.377c0-.381-.294-.689-.655-.689-.363 0-.657.308-.657.689v1.377h-3.938v-1.377c0-.381-.294-.689-.656-.689-.363 0-.657.308-.657.689v1.377h-2.843c-.966 0-1.75.822-1.75 1.837v16.302c0 1.015.784 1.836 1.75 1.836h17.501c.966 0 1.749-.821 1.749-1.836v-16.302c0-1.015-.783-1.837-1.749-1.837zm.437 18.139c.0029535.1188271-.0414365.2339571-.1233975.3200442-.0819609.0860872-.1947737.136074-.3136025.1389558h-17.501c-.24736823-.0065476-.44303574-.2115964-.438-.459v-16.302c-.00503574-.24740362.19063177-.45245245.438-.459h2.844v1.378c0 .381.294.689.657.689.362 0 .656-.308.656-.689v-1.378h3.938v1.378c0 .381.294.689.657.689.361 0 .655-.308.655-.689v-1.378h3.938v1.378c0 .381.293.689.656.689.362 0 .656-.308.656-.689v-1.378h2.845c.241 0 .437.206.437.459v16.302z"/><path d="m4.594 9.225h2.625v2.066h-2.625zm0 3.443h2.625v2.067h-2.625zm0 3.444h2.625v2.066h-2.625zm4.594 0h2.625v2.066h-2.625zm0-3.444h2.625v2.067h-2.625zm0-3.443h2.625v2.066h-2.625zm4.593 6.887h2.625v2.066h-2.625zm0-3.444h2.625v2.067h-2.625zm0-3.443h2.625v2.066h-2.625z"/></g></svg>

<svg width="21px" height="22px" viewBox="0 0 21 22" version="1.1" xmlns="http://www.w3.org/2000/svg" xmlns:xlink="http://www.w3.org/1999/xlink">
    <g id="Styleguide" stroke="none" stroke-width="1" fill="none" fill-rule="evenodd">
        <g transform="translate(-367.000000, -2433.000000)" fill="#000000" fill-rule="nonzero" id="calendar">
            <g transform="translate(367.000000, 2432.000000)">
                <path d="M19.251,3.025 L16.406,3.025 L16.406,1.648 C16.406,1.267 16.112,0.959 15.75,0.959 C15.387,0.959 15.094,1.267 15.094,1.648 L15.094,3.025 L11.156,3.025 L11.156,1.648 C11.156,1.267 10.862,0.959 10.501,0.959 C10.138,0.959 9.844,1.267 9.844,1.648 L9.844,3.025 L5.906,3.025 L5.906,1.648 C5.906,1.267 5.612,0.959 5.25,0.959 C4.887,0.959 4.593,1.267 4.593,1.648 L4.593,3.025 L1.75,3.025 C0.784,3.025 0,3.847 0,4.862 L0,21.164 C0,22.179 0.784,23 1.75,23 L19.251,23 C20.217,23 21,22.179 21,21.164 L21,4.862 C21,3.847 20.217,3.025 19.251,3.025 Z M19.688,21.164 C19.6909535,21.2828271 19.6465635,21.3979571 19.5646025,21.4840442 C19.4826416,21.5701314 19.3698288,21.6201182 19.251,21.623 L1.75,21.623 C1.50263177,21.6164524 1.30696426,21.4114036 1.312,21.164 L1.312,4.862 C1.30696426,4.61459638 1.50263177,4.40954755 1.75,4.403 L4.594,4.403 L4.594,5.781 C4.594,6.162 4.888,6.47 5.251,6.47 C5.613,6.47 5.907,6.162 5.907,5.781 L5.907,4.403 L9.845,4.403 L9.845,5.781 C9.845,6.162 10.139,6.47 10.502,6.47 C10.863,6.47 11.157,6.162 11.157,5.781 L11.157,4.403 L15.095,4.403 L15.095,5.781 C15.095,6.162 15.388,6.47 15.751,6.47 C16.113,6.47 16.407,6.162 16.407,5.781 L16.407,4.403 L19.252,4.403 C19.493,4.403 19.689,4.609 19.689,4.862 L19.689,21.164 L19.688,21.164 Z" id="Shape"></path>
                <path d="M4.594,9.225 L7.219,9.225 L7.219,11.291 L4.594,11.291 L4.594,9.225 Z M4.594,12.668 L7.219,12.668 L7.219,14.735 L4.594,14.735 L4.594,12.668 Z M4.594,16.112 L7.219,16.112 L7.219,18.178 L4.594,18.178 L4.594,16.112 Z M9.188,16.112 L11.813,16.112 L11.813,18.178 L9.188,18.178 L9.188,16.112 Z M9.188,12.668 L11.813,12.668 L11.813,14.735 L9.188,14.735 L9.188,12.668 Z M9.188,9.225 L11.813,9.225 L11.813,11.291 L9.188,11.291 L9.188,9.225 Z M13.781,16.112 L16.406,16.112 L16.406,18.178 L13.781,18.178 L13.781,16.112 Z M13.781,12.668 L16.406,12.668 L16.406,14.735 L13.781,14.735 L13.781,12.668 Z M13.781,9.225 L16.406,9.225 L16.406,11.291 L13.781,11.291 L13.781,9.225 Z" id="Shape"></path>
            </g>
        </g>
    </g>
</svg>
